!!!OTL: DORT NIEDEN AN DEM RHEINE
!!!ARE: Europa, Mitteleuropa, Deutschland
!!!SCT: E1135
!!!YEM: Copyright 1995, estate of Helmut Schaffrath.
**kern
*ICvox
*Ivox
*M4/4
*k[f#c#g#]
*A:
{4ee
=1
4e
4e
4.a
8b
=2
8cc#
8b
8cc#
8dd
4ee}
{4a
=3
4dd
8dd
8cc#
4b
4b
=4
2a
4r}
{4ee
=5
4e
4e
4.a
8b
=6
8cc#
8b
8cc#
8dd
4ee}
{4a
=7
4dd
8dd
8cc#
4b
4b
=8
2a
4r}
{4ee
=9
4.dd
8dd
4.cc#
8dd
=10
2ee
4b}
{4ggn
=11
4ff#
4ee
4ee
4dd#
=12
2ee
4r}
{4ee
=13
4cc#
4cc#
4a
4a
=14
2ee
4cc#}
{4dd
=15
4b
4a
4a
4g#
=16
2a
4r}
==
!!!AGN: Trink -, Zech - Lied
!!!ONB: ESAC (Essen Associative Code) Database: ERK3
!!!AMT: simple quadruple
!!!AIN: vox
!!!EED: Helmut Schaffrath
!!!EEV: 1.0
*-
